X:55
M:C|
L:1/8
K:E_
c|B(GG)F EFGc|BGeG cFFc|B(GG)F EFGf|gfed e2 dc|B(GG)F EFGc|
g|egge dffd|egge fdBd|egge dffd|cgfd c2 cg|egeg dfdf|egeg fdBg|
agfe dcBA|Ggfd e2 dc||

